src/assets/duotone/DocumentCloud.svg

<svg width="24" height="24" viewBox="0 0 24 24"  xmlns="http://www.w3.org/2000/svg">
<path opacity="0.4" d="M20.5 10.19H17.61C15.24 10.19 13.31 8.26 13.31 5.89V3C13.31 2.45 12.86 2 12.31 2H8.07C4.99 2 2.5 4.00001 2.5 7.57001V16.43C2.5 20 4.99 22 8.07 22H15.93C19.01 22 21.5 20 21.5 16.43V11.19C21.5 10.64 21.05 10.19 20.5 10.19Z" />
<path d="M15.8002 2.21048C15.3902 1.80048 14.6802 2.08047 14.6802 2.65047V6.14048C14.6802 7.60048 15.9202 8.81048 17.4302 8.81048C18.3802 8.82048 19.7002 8.82049 20.8302 8.82049C21.4002 8.82049 21.7002 8.15048 21.3002 7.75048C19.8602 6.30048 17.2802 3.69048 15.8002 2.21048Z" />
<path d="M14.7601 19.2598C12.4101 19.4298 12.4101 22.8298 14.7601 22.9998H20.3201C20.9901 22.9998 21.6501 22.7498 22.1401 22.2998C23.7901 20.8598 22.9101 17.9798 20.7401 17.7098C19.9601 13.0198 13.1801 14.7998 14.7801 19.2698" />
</svg>

<?xml version="1.0" encoding="UTF-8"?>
<svg width="24" height="24" viewBox="0 0 24 24" xmlns="http://www.w3.org/2000/svg">
 <path d="m20.5 10.19h-2.89c-2.37 0-4.3-1.93-4.3-4.3v-2.89c0-0.55-0.45-1-1-1h-4.24c-3.08 0-5.57 2-5.57 5.57v8.86c0 3.57 2.49 5.57 5.57 5.57h7.86c3.08 0 5.57-2 5.57-5.57v-5.24c0-0.55-0.45-1-1-1z" opacity=".4"/>
 <path d="m15.8 2.2105c-0.41-0.41-1.12-0.13001-1.12 0.43999v3.49c0 1.46 1.24 2.67 2.75 2.67 0.95 0.01 2.27 0.01001 3.4 0.01001 0.57 0 0.87-0.67001 0.47-1.07-1.44-1.45-4.02-4.06-5.5-5.54z"/>
 <path d="m14.76 19.26c-2.35 0.17-2.35 3.57 0 3.74h5.56c0.67 0 1.33-0.25 1.82-0.7 1.65-1.44 0.77-4.32-1.4-4.59-0.78-4.69-7.56-2.91-5.96 1.56"/>
</svg>
